material/.icons/material/peanut.svg

<svg xmlns="http://www.w3.org/2000/svg" viewBox="0 0 24 24"><path d="M16 12.77a2 2 0 01-.14-2.65 5 5 0 00-2.82-8A5.74 5.74 0 0012 2a5 5 0 00-5 5 5 5 0 001.11 3.12 2 2 0 01-.11 2.6 5.5 5.5 0 002.81 9.15A5.42 5.42 0 0012 22a5.5 5.5 0 004-9.23M13 5a1 1 0 11-1 1 1 1 0 011-1m-2 13a1 1 0 111-1 1 1 0 01-1 1m1-3a1 1 0 111 1 1 1 0 01-1-1m2 4a1 1 0 111-1 1 1 0 01-1 1z"/></svg>

<?xml version="1.0" encoding="UTF-8"?><!DOCTYPE svg PUBLIC "-//W3C//DTD SVG 1.1//EN" "http://www.w3.org/Graphics/SVG/1.1/DTD/svg11.dtd"><svg xmlns="http://www.w3.org/2000/svg" xmlns:xlink="http://www.w3.org/1999/xlink" version="1.1" id="mdi-peanut" width="24" height="24" viewBox="0 0 24 24"><path d="M16 12.77A2 2 0 0 1 15.86 10.12A5 5 0 0 0 13.04 2.12A5.74 5.74 0 0 0 12 2A5 5 0 0 0 7 7A5 5 0 0 0 8.11 10.12A2 2 0 0 1 8 12.72A5.5 5.5 0 0 0 10.81 21.87A5.42 5.42 0 0 0 12 22A5.5 5.5 0 0 0 16 12.77M13 5A1 1 0 1 1 12 6A1 1 0 0 1 13 5M11 18A1 1 0 1 1 12 17A1 1 0 0 1 11 18M12 15A1 1 0 1 1 13 16A1 1 0 0 1 12 15M14 19A1 1 0 1 1 15 18A1 1 0 0 1 14 19Z" /></svg>
